X: 27493
T: Molly Tara
R: jig
M: 6/8
K: Dmajor
GAd dcA|dcd cAD|G2 F A2 B|ded e2 d|
afa gec|ddB g>ee|Ddd B G2|ABc d3:|
ded ded|gag gec|ded e2 d|BAG {B}A3|
Add Add|gfe fef|fdf ecc|GBB ABd:|

